X: 1
T:Hanners Jigg
M:6/8
L:1/8
S:Armitt MS
K:C major
c2cc2f|egec3|G2GG2B|dBGG3|c2cc2f|egec3|AcA BdB|c3C3||g2g gfg|c2cc3|a2a a
fa|d2dd3|g2g gfg|c2cc3|AcA BdB|c3C3||
